X:16
T:Cooley's
S:The Session: https://thesession.org/tunes/1#setting1
S:https://JamBuddy.live 2025
C:Traditional
R:reel
K:D
M:4/4
L:1/8
Q:120
D2|: EBBA B2 EB| B2 AB dBAG|FDAD BDAD| FDAD dAFD| 
| EBBA B2 EB| B2 AB defg| afec dBAF|1 DEFD E2 D2:|2 DEFD E2 gf |] 
|: eB B2 efge| eB B2 gedB| A2 FA DAFA| A2 FA defg|
| eB B2 eBgB| eB B2 defg| afec dBAF|1 DEFD E2 gf :|2 DEFD E4 |]

